html/dist/img/money.svg

<svg width="65" height="65" viewBox="0 0 65 65" fill="none" xmlns="http://www.w3.org/2000/svg">
<path d="M33.3486 35.4742C33.2283 35.4481 33.1049 35.4434 32.9831 35.4617C31.7623 35.3195 30.8414 34.2867 30.8393 33.0581C30.8393 32.4693 30.3619 31.9919 29.7731 31.9919C29.1843 31.9919 28.7069 32.4693 28.7069 33.0581C28.71 35.1097 30.0823 36.9068 32.0606 37.4498V38.516C32.0606 39.1048 32.538 39.5822 33.1268 39.5822C33.7156 39.5822 34.193 39.1048 34.193 38.516V37.5144C36.4763 37.0365 38.0282 34.9098 37.7882 32.5895C37.5477 30.2692 35.5929 28.5059 33.2601 28.5054C31.9232 28.5054 30.8393 27.4215 30.8393 26.0846C30.8393 24.7477 31.9232 23.6638 33.2601 23.6638C34.597 23.6638 35.6808 24.7477 35.6808 26.0846C35.6808 26.6734 36.1582 27.1508 36.747 27.1508C37.3358 27.1508 37.8132 26.6734 37.8132 26.0846C37.8101 23.9304 36.3009 22.0724 34.193 21.6278V20.6574C34.193 20.0686 33.7156 19.5912 33.1268 19.5912C32.538 19.5912 32.0606 20.0686 32.0606 20.6574V21.6928C29.8605 22.2936 28.4445 24.4296 28.7475 26.6901C29.0505 28.9505 30.9793 30.6378 33.2601 30.6373C34.5793 30.6373 35.6553 31.6936 35.6793 33.0122C35.7038 34.3309 34.6667 35.4263 33.3486 35.4742Z" fill="#E30613"/>
<path d="M17.7993 29.6534C17.7993 38.1923 24.7212 45.1142 33.2601 45.1142C41.7989 45.1142 48.7208 38.1923 48.7208 29.6534C48.7208 21.1145 41.7989 14.1926 33.2601 14.1926C24.7254 14.202 17.8092 21.1187 17.7993 29.6534ZM33.2601 16.325C40.6213 16.325 46.5885 22.2921 46.5885 29.6534C46.5885 37.0147 40.6213 42.9818 33.2601 42.9818C25.8988 42.9818 19.9317 37.0147 19.9317 29.6534C19.94 22.2958 25.9024 16.3333 33.2601 16.325Z" fill="#E30613"/>
<path d="M53.9768 47.7426L45.6248 51.6888C44.4717 49.5439 42.2597 48.1789 39.8253 48.1102L32.1153 47.8983C30.8945 47.8634 29.6966 47.5542 28.6111 46.9935L27.8266 46.5869C23.8096 44.493 19.0217 44.4982 15.0089 46.6004L15.0578 44.8231C15.074 44.2343 14.6101 43.7439 14.0213 43.7277L5.56678 43.495C4.97799 43.4789 4.4881 43.9428 4.47196 44.5316L3.96125 63.0847C3.94512 63.6735 4.40897 64.1639 4.99777 64.18L13.4523 64.4127H13.4815C14.0593 64.4127 14.532 63.953 14.5476 63.3757L14.5721 62.4881L16.7685 61.312C17.6306 60.8482 18.6385 60.7378 19.5803 61.0044L32.6963 64.6855C32.7192 64.6923 32.7421 64.6975 32.7655 64.7027C33.7135 64.901 34.6797 65.0005 35.6481 65C37.6992 65.001 39.7264 64.559 41.5907 63.7031C41.6365 63.6823 41.6808 63.6579 41.7229 63.6303L60.7399 51.3295C61.2137 51.0229 61.3667 50.4008 61.0892 49.9093C59.6774 47.4042 56.546 46.45 53.9768 47.7426ZM6.12226 62.0778L6.57414 45.656L12.8968 45.8299L12.4449 62.2522L6.12226 62.0778ZM40.6302 61.7988C38.314 62.8442 35.7272 63.1326 33.2377 62.6239L20.1571 58.9522C18.6848 58.5362 17.109 58.7085 15.7622 59.4327L14.6398 60.034L14.9402 49.1154C18.4969 46.7498 23.0584 46.5067 26.8463 48.4803L27.6308 48.8869C29.0021 49.5949 30.5144 49.9854 32.057 50.0301L39.7676 50.242C41.9333 50.3045 43.7725 51.8465 44.2119 53.9685L32.727 53.6514C32.1382 53.6353 31.6483 54.0997 31.6316 54.6879C31.6155 55.2767 32.0799 55.7671 32.6681 55.7833L45.3427 56.1321H45.3723C45.9497 56.1315 46.4219 55.6719 46.4375 55.095C46.4505 54.6317 46.4161 54.1678 46.3344 53.7118L54.9009 49.6641C54.9092 49.6605 54.9175 49.6563 54.9259 49.6522C56.1409 49.0373 57.6101 49.243 58.6096 50.1681L40.6302 61.7988Z" fill="#E30613"/>
<path d="M34.3263 11.195V1.06619C34.3263 0.47739 33.8489 0 33.2601 0C32.6713 0 32.1939 0.47739 32.1939 1.06619V11.195C32.1939 11.7838 32.6713 12.2612 33.2601 12.2612C33.8489 12.2612 34.3263 11.7838 34.3263 11.195Z" fill="#E30613"/>
<path d="M42.3227 11.195V6.39712C42.3227 5.80832 41.8453 5.33093 41.2565 5.33093C40.6677 5.33093 40.1903 5.80832 40.1903 6.39712V11.195C40.1903 11.7838 40.6677 12.2612 41.2565 12.2612C41.8453 12.2612 42.3227 11.7838 42.3227 11.195Z" fill="#E30613"/>
<path d="M26.3298 11.195V6.39712C26.3298 5.80832 25.8525 5.33093 25.2637 5.33093C24.6749 5.33093 24.1975 5.80832 24.1975 6.39712V11.195C24.1975 11.7838 24.6749 12.2612 25.2637 12.2612C25.8525 12.2612 26.3298 11.7838 26.3298 11.195Z" fill="#E30613"/>
</svg>

<svg width="65" height="65" viewBox="0 0 65 65" fill="none" xmlns="http://www.w3.org/2000/svg"><path d="M33.349 35.474a1.012 1.012 0 00-.366-.012 2.424 2.424 0 01-2.144-2.404 1.066 1.066 0 00-2.132 0 4.561 4.561 0 003.354 4.392v1.066a1.066 1.066 0 002.132 0v-1.002a4.553 4.553 0 00-.933-9.009 2.42 2.42 0 112.42-2.42 1.066 1.066 0 002.133 0 4.561 4.561 0 00-3.62-4.457v-.97a1.066 1.066 0 00-2.132 0v1.035a4.553 4.553 0 001.2 8.944 2.42 2.42 0 01.088 4.837z" fill="#E30613"/><path d="M17.8 29.653c0 8.54 6.921 15.461 15.46 15.461 8.539 0 15.46-6.922 15.46-15.46 0-8.54-6.921-15.461-15.46-15.461-8.535.009-15.45 6.926-15.46 15.46zm15.46-13.328c7.361 0 13.329 5.967 13.329 13.328 0 7.362-5.968 13.329-13.329 13.329-7.361 0-13.328-5.967-13.328-13.329.008-7.357 5.97-13.32 13.328-13.328z" fill="#E30613"/><path d="M53.977 47.743l-8.352 3.946a6.802 6.802 0 00-5.8-3.579l-7.71-.212a8.143 8.143 0 01-3.504-.905l-.784-.406a13.838 13.838 0 00-12.818.013l.049-1.777a1.066 1.066 0 00-1.037-1.095l-8.454-.233a1.066 1.066 0 00-1.095 1.037l-.51 18.553a1.066 1.066 0 001.036 1.095l8.454.233h.03c.577 0 1.05-.46 1.066-1.037l.024-.888 2.197-1.176a3.768 3.768 0 012.811-.308l13.116 3.682.07.017a14.226 14.226 0 008.825-1 .982.982 0 00.132-.073l19.017-12.3c.474-.307.627-.93.35-1.42a5.386 5.386 0 00-7.113-2.167zM6.122 62.078l.452-16.422 6.323.174-.452 16.422-6.323-.174zm34.508-.28a12.088 12.088 0 01-7.392.826l-13.08-3.672a5.895 5.895 0 00-4.396.48l-1.122.602.3-10.919a11.72 11.72 0 0111.906-.635l.785.407a10.297 10.297 0 004.426 1.143l7.71.212a4.676 4.676 0 014.445 3.727l-11.485-.318a1.067 1.067 0 00-.059 2.132l12.675.35h.03a1.068 1.068 0 001.065-1.038 6.77 6.77 0 00-.104-1.383l8.567-4.048.025-.012a3.257 3.257 0 013.684.516l-17.98 11.63zm-6.304-50.603V1.066a1.066 1.066 0 00-2.132 0v10.129a1.066 1.066 0 002.132 0zm7.997 0V6.397a1.066 1.066 0 00-2.133 0v4.798a1.066 1.066 0 002.133 0zm-15.993 0V6.397a1.066 1.066 0 10-2.132 0v4.798a1.066 1.066 0 002.132 0z" fill="#E30613"/></svg>
